X: 1
T: Lacey's - Michael Dwyer's
C:
M: 6/8
L: 1/8
R: jig
K: Ador
P:A
|: EAA A^ce | d2d e^cA | E2E ABc | DEF G3 |
EAA A^ce | g2b age | d(3Bcd gdb | AGE EAA :|
|: eaa b2a | edB AEd | efg e2d | BAG EDB |
eaa b2a | edB AGD | GAB d2e | dBA EAA :|
P:B
K: Gmaj
|: ~B2G Adc | ~B2B BAG | ~B2G AFD | FGG ~GFD |
~B2G Adc |B2G ABc | dge ~f2d | cAF ~G3 :|
|: GBd ~g3 | fed cAF | GBd ~g3 |faf ~g3 |
faf ~g2e | fed cAF | DBB ~BAG | (3Bcd B cAF :|
|: DBB ~B2d | cAA AGF | ~G2G BAG | BdB cAF |
DBB ~B2d | cAA ABc | dge ~f2d | cAF ~G3 :|

